src/assets/icons/internet-communication,simple,internet.svg

<svg width="48" height="48" viewBox="0 0 48 48" fill="none" xmlns="http://www.w3.org/2000/svg">
<rect opacity="0.2" x="5" y="5" width="38" height="38" rx="4" fill="black"/>
<g opacity="0.6">
<path d="M25.2658 33.9212C24.8512 33.9732 24.4287 34 24 34C23.5712 34 23.1488 33.9732 22.7342 33.9212C21.1305 31.3241 20.2297 28.0902 20.0582 24.8333H27.9417C27.7703 28.0902 26.8695 31.3242 25.2658 33.9212Z" fill="black"/>
<path d="M27.4716 33.3854C31.0529 32.0693 33.6737 28.7755 34 24.8333H29.6162C29.4709 27.7997 28.7615 30.7866 27.4716 33.3854Z" fill="black"/>
<path d="M29.6385 23.1667H34C33.678 19.2765 31.1215 16.0176 27.6126 14.6677C28.9064 17.1482 29.5704 20.1348 29.6385 23.1667Z" fill="black"/>
<path d="M25.3108 14.0846C24.8818 14.0288 24.4443 14 24 14C23.5557 14 23.1182 14.0288 22.6892 14.0846C21.0224 16.4654 20.1173 19.7276 20.0343 23.1667H27.9656C27.8827 19.7276 26.9776 16.4654 25.3108 14.0846Z" fill="black"/>
<path d="M18.3838 24.8333C18.529 27.7997 19.2385 30.7866 20.5284 33.3853C16.9471 32.0692 14.3263 28.7755 14 24.8333H18.3838Z" fill="black"/>
<path d="M18.3615 23.1667C18.4296 20.1348 19.0936 17.1483 20.3873 14.6677C16.8784 16.0177 14.322 19.2765 14 23.1667H18.3615Z" fill="black"/>
</g>
<path fill-rule="evenodd" clip-rule="evenodd" d="M24 38C31.732 38 38 31.732 38 24C38 16.268 31.732 10 24 10C16.268 10 10 16.268 10 24C10 31.732 16.268 38 24 38ZM36 24C36 30.6274 30.6274 36 24 36C17.3726 36 12 30.6274 12 24C12 17.3726 17.3726 12 24 12C30.6274 12 36 17.3726 36 24Z" fill="black"/>
</svg>

<svg xmlns="http://www.w3.org/2000/svg" width="48" height="48" fill="none" viewBox="0 0 48 48">
  <rect width="38" height="38" x="5" y="5" fill="#000" opacity=".2" rx="4"/>
  <g opacity=".6">
    <path fill="#000" d="M25.266 33.921a10.169 10.169 0 01-2.532 0c-1.604-2.597-2.504-5.83-2.676-9.088h7.884c-.172 3.257-1.073 6.491-2.676 9.088zM27.472 33.385c3.58-1.316 6.202-4.61 6.528-8.552h-4.384c-.145 2.967-.854 5.954-2.144 8.552zM29.639 23.167H34c-.322-3.89-2.878-7.15-6.387-8.5 1.293 2.481 1.957 5.468 2.026 8.5zM25.31 14.085a10.159 10.159 0 00-2.62 0c-1.668 2.38-2.573 5.643-2.656 9.082h7.932c-.083-3.44-.988-6.702-2.655-9.082zM18.384 24.833c.145 2.967.854 5.954 2.144 8.552-3.58-1.316-6.202-4.61-6.528-8.552h4.384zM18.361 23.167c.069-3.032.733-6.019 2.026-8.5-3.509 1.35-6.065 4.61-6.387 8.5h4.361z"/>
  </g>
  <path fill="#000" fill-rule="evenodd" d="M24 38c7.732 0 14-6.268 14-14s-6.268-14-14-14-14 6.268-14 14 6.268 14 14 14zm12-14c0 6.627-5.373 12-12 12s-12-5.373-12-12 5.373-12 12-12 12 5.373 12 12z" clip-rule="evenodd"/>
</svg>
